X:5938
T:Gan Ainm
R:reel
S:Unknown Fiddle
H:
N:
D:Radio Clare Broadcast
Z:Adrian Scahill
M:4/4
L:1/8
K:D
A,B,DF EFDB,|A,DFA d2cd|ABBA FDDF|DEED B3d|\
ADD2 B,DA,B,|DEFA dcde|fdd2 gdAF|GBAG FDD2:||\
dAA2 fAec|dcdB AFDE|FBBA B3A|FBBA FEE2|\
dAA2 fAec|dafd AFDF|GBBA FAdB|AFEG FDD2:||
